public/formular-icons/greece/upper-lambda.svg

<svg style="vertical-align:0" xmlns="http://www.w3.org/2000/svg" width="1.57ex" height="1.62ex" viewBox="0 -716 694 716" xmlns:xlink="http://www.w3.org/1999/xlink"><defs><path id="a" d="M320 708q6 8 20 8h15q12 0 17-8 2-2 51-161t100-321 52-164q6-10 16-12t43-4h27V0h-8q-9 3-121 3-121 0-142-3h-11v46h13q72 0 72 19-1 5-74 240t-74 234l-70-223Q177 95 177 84q0-12 21-25t50-13h5V0h-8q-15 3-115 3-83 0-92-3h-6v46h13q67 5 82 45 1 1 97 308t96 309Z"/></defs><g stroke="currentColor" fill="currentColor" stroke-width="0"><use data-c="39B" xlink:href="#a" transform="scale(1 -1)"/></g></svg>

<svg style="vertical-align: 0" xmlns="http://www.w3.org/2000/svg" width="1.57ex" height="1.62ex" role="img" focusable="false" viewBox="0 -716 694 716" xmlns:xlink="http://www.w3.org/1999/xlink"><defs><path id="MJX-107-TEX-N-39B" d="M320 708Q326 716 340 716H348H355Q367 716 372 708Q374 706 423 547T523 226T575 62Q581 52 591 50T634 46H661V0H653Q644 3 532 3Q411 3 390 0H379V46H392Q464 46 464 65Q463 70 390 305T316 539L246 316Q177 95 177 84Q177 72 198 59T248 46H253V0H245Q230 3 130 3Q47 3 38 0H32V46H45Q112 51 127 91Q128 92 224 399T320 708Z"></path></defs><g stroke="currentColor" fill="currentColor" stroke-width="0" transform="scale(1,-1)"><g data-mml-node="math"><g data-mml-node="mi"><use data-c="39B" xlink:href="#MJX-107-TEX-N-39B"></use></g></g></g></svg>
